src/assets/duotone/ShieldSecurity.svg

<svg width="24" height="24" viewBox="0 0 24 24"  xmlns="http://www.w3.org/2000/svg">
<path opacity="0.4" d="M10.9598 2.10989L5.4598 4.16989C4.4098 4.56989 3.5498 5.80989 3.5498 6.93989V15.0399C3.5498 15.8499 4.0798 16.9199 4.7298 17.3999L10.2298 21.5099C11.1998 22.2399 12.7898 22.2399 13.7598 21.5099L19.2598 17.3999C19.9098 16.9099 20.4398 15.8499 20.4398 15.0399V6.93989C20.4398 5.81989 19.5798 4.56988 18.5298 4.17988L13.0298 2.11989C12.4698 1.89989 11.5298 1.89989 10.9598 2.10989Z" />
<path d="M14.5 10.5C14.5 9.12 13.38 8 12 8C10.62 8 9.5 9.12 9.5 10.5C9.5 11.62 10.24 12.55 11.25 12.87V15.5C11.25 15.91 11.59 16.25 12 16.25C12.41 16.25 12.75 15.91 12.75 15.5V12.87C13.76 12.55 14.5 11.62 14.5 10.5Z" />
</svg>

<?xml version="1.0" encoding="UTF-8"?>
<svg width="24" height="24" viewBox="0 0 24 24" xmlns="http://www.w3.org/2000/svg">
 <path d="m10.96 2.1099-5.5 2.06c-1.05 0.4-1.91 1.64-1.91 2.77v8.1c0 0.81 0.53 1.88 1.18 2.36l5.5 4.11c0.97 0.73 2.56 0.73 3.53 0l5.5-4.11c0.65-0.49 1.18-1.55 1.18-2.36v-8.1c0-1.12-0.86-2.37-1.91-2.76l-5.5-2.06c-0.56-0.22-1.5-0.22-2.07-0.01z" opacity=".4"/>
 <path d="m14.5 10.5c0-1.38-1.12-2.5-2.5-2.5s-2.5 1.12-2.5 2.5c0 1.12 0.74 2.05 1.75 2.37v2.63c0 0.41 0.34 0.75 0.75 0.75s0.75-0.34 0.75-0.75v-2.63c1.01-0.32 1.75-1.25 1.75-2.37z"/>
</svg>
